packages/core/src/svgs/spx.svg

<svg width="24" height="24" viewBox="0 0 24 24" fill="none" xmlns="http://www.w3.org/2000/svg">
<g clip-path="url(#clip0_31_19195)">
<path d="M0 0H24V24H0V0Z" fill="url(#paint0_linear_31_19195)"/>
<path fill-rule="evenodd" clip-rule="evenodd" d="M12.0001 18.8572C13.8187 18.8572 15.5628 18.1348 16.8488 16.8488C18.1348 15.5628 18.8572 13.8187 18.8572 12.0001C18.8572 10.1814 18.1348 8.4373 16.8488 7.15134C15.5628 5.86537 13.8187 5.14293 12.0001 5.14293C10.1814 5.14293 8.4373 5.86537 7.15134 7.15134C5.86537 8.4373 5.14293 10.1814 5.14293 12.0001C5.14293 13.8187 5.86537 15.5628 7.15134 16.8488C8.4373 18.1348 10.1814 18.8572 12.0001 18.8572ZM12.0001 19.2858C13.9324 19.2858 15.7855 18.5182 17.1518 17.1518C18.5182 15.7855 19.2858 13.9324 19.2858 12.0001C19.2858 10.0678 18.5182 8.21463 17.1518 6.84829C15.7855 5.48196 13.9324 4.71436 12.0001 4.71436C10.0678 4.71436 8.21463 5.48196 6.84829 6.84829C5.48196 8.21463 4.71436 10.0678 4.71436 12.0001C4.71436 13.9324 5.48196 15.7855 6.84829 17.1518C8.21463 18.5182 10.0678 19.2858 12.0001 19.2858Z" fill="url(#paint1_linear_31_19195)"/>
<path d="M11.0869 12.1455L11.6012 14.9741C10.8805 14.8907 10.205 14.58 9.67265 14.0869C9.32979 13.7741 8.82408 13.6455 8.42979 13.8855C8.00979 14.1341 7.88122 14.6869 8.20693 15.0426C8.67831 15.5592 9.25031 15.9739 9.88782 16.2614C10.5253 16.5488 11.2149 16.7028 11.9141 16.7141L12.0169 17.2926C12.0366 17.4035 12.078 17.5094 12.1386 17.6043C12.1992 17.6992 12.278 17.7812 12.3703 17.8457C12.4626 17.9102 12.5667 17.9558 12.6767 17.98C12.7867 18.0043 12.9003 18.0066 13.0112 17.9869C13.1221 17.9672 13.228 17.9259 13.3229 17.8652C13.4178 17.8046 13.4998 17.7259 13.5643 17.6336C13.6288 17.5412 13.6744 17.4371 13.6986 17.3271C13.7229 17.2172 13.7252 17.1035 13.7055 16.9926L13.6112 16.4569C14.7623 16.0781 15.7426 15.3049 16.3793 14.2739C17.016 13.2428 17.2681 12.02 17.0912 10.8212C16.9798 10.0412 16.1826 9.62548 15.4026 9.74977C13.1612 10.1098 10.9198 10.4355 8.66979 10.7783C8.7945 10.253 9.04153 9.76451 9.39075 9.3527C9.73998 8.94089 10.1815 8.61738 10.6795 8.40852C11.1774 8.19966 11.7176 8.11136 12.2561 8.1508C12.7946 8.19024 13.3162 8.35631 13.7784 8.63548C14.1084 8.83691 14.5198 8.89262 14.8541 8.70834C15.3684 8.42977 15.4884 7.74405 15.0126 7.4012C14.2447 6.84607 13.3383 6.51391 12.3935 6.44136C11.4487 6.36882 10.5022 6.55872 9.65854 6.9901C8.81485 7.42148 8.10674 8.07757 7.61236 8.88596C7.11798 9.69435 6.85655 10.6236 6.85693 11.5712C6.85693 12.2569 7.52122 12.7026 8.20265 12.5998C9.15836 12.4498 10.0969 12.2955 11.0869 12.1455ZM12.7841 11.8883L15.4284 11.4941V11.5712C15.428 12.2515 15.2253 12.9163 14.846 13.4811C14.4667 14.0458 13.928 14.485 13.2984 14.7426L12.7841 11.8926V11.8883Z" fill="url(#paint2_linear_31_19195)"/>
</g>
<defs>
<linearGradient id="paint0_linear_31_19195" x1="4.46571" y1="4.16143" x2="29.2071" y2="32.58" gradientUnits="userSpaceOnUse">
<stop stop-color="#1A1E21"/>
<stop offset="1" stop-color="#06060A"/>
</linearGradient>
<linearGradient id="paint1_linear_31_19195" x1="4.92864" y1="12.6429" x2="19.2858" y2="13.0715" gradientUnits="userSpaceOnUse">
<stop stop-color="#FD00FF"/>
<stop offset="1" stop-color="#0BF2FE"/>
</linearGradient>
<linearGradient id="paint2_linear_31_19195" x1="8.35693" y1="8.78548" x2="15.8569" y2="14.1426" gradientUnits="userSpaceOnUse">
<stop stop-color="#0BF1FF"/>
<stop offset="1" stop-color="#F903FF"/>
</linearGradient>
<clipPath id="clip0_31_19195">
<rect width="24" height="24" fill="white"/>
</clipPath>
</defs>
</svg>

<svg xmlns="http://www.w3.org/2000/svg" width="24" height="24" fill="none" viewBox="0 0 24 24"><g clip-path="url(#a)"><path fill="url(#b)" d="M0 0h24v24H0z"/><path fill="url(#c)" fill-rule="evenodd" d="M12 18.857a6.857 6.857 0 1 0 0-13.714 6.857 6.857 0 0 0 0 13.714m0 .429a7.285 7.285 0 1 0 0-14.57 7.285 7.285 0 0 0 0 14.57" clip-rule="evenodd"/><path fill="url(#d)" d="m11.087 12.146.514 2.828a3.4 3.4 0 0 1-1.928-.887c-.343-.313-.849-.441-1.243-.201-.42.248-.549.8-.223 1.157a5.13 5.13 0 0 0 3.707 1.671l.103.579a.858.858 0 0 0 1.689-.3l-.095-.536a5.14 5.14 0 0 0 3.48-5.636c-.111-.78-.908-1.196-1.688-1.071-2.242.36-4.483.685-6.733 1.028a3.43 3.43 0 0 1 5.108-2.143c.33.202.742.258 1.076.073.514-.278.634-.964.159-1.307a5.143 5.143 0 0 0-8.156 4.17c0 .686.664 1.132 1.346 1.029.955-.15 1.894-.304 2.884-.454m1.697-.258 2.644-.394v.077a3.43 3.43 0 0 1-2.13 3.172l-.514-2.85z"/></g><defs><linearGradient id="b" x1="4.466" x2="29.207" y1="4.161" y2="32.58" gradientUnits="userSpaceOnUse"><stop stop-color="#1A1E21"/><stop offset="1" stop-color="#06060A"/></linearGradient><linearGradient id="c" x1="4.929" x2="19.286" y1="12.643" y2="13.072" gradientUnits="userSpaceOnUse"><stop stop-color="#FD00FF"/><stop offset="1" stop-color="#0BF2FE"/></linearGradient><linearGradient id="d" x1="8.357" x2="15.857" y1="8.785" y2="14.143" gradientUnits="userSpaceOnUse"><stop stop-color="#0BF1FF"/><stop offset="1" stop-color="#F903FF"/></linearGradient><clipPath id="a"><path fill="#fff" d="M0 0h24v24H0z"/></clipPath></defs></svg>
